X:790
T:An Ataireachd Ard #2
C:Joe Buchanan's Scottish Tome - Page 538.1
I:538 1
Z:Carl Allison
R:Slow Air
L:1/4
M:3/4
K:G
D | "G"B, D G | "G7"(B2 A) | "C"G2 E | (E G) E | "G"D2 D | "G"GAB | "C"(c d) | "Am"c2 B |
"Em"(G E) G | "D"A2 D | "G"B, D G | (B2 A) | "C"B2 E | "C"G2 E | (E G) E | "G"D2 D | "G"(D G) B |
"Bm"d2 E | "Am"c2 E | "D7"(D E) D | "G"D2 :|

